src/img/profits.svg

<svg width="40" height="40" fill="none" xmlns="http://www.w3.org/2000/svg">
  <path d="M32.5 25.4688C32.9312 25.4688 33.2812 25.1187 33.2812 24.6875C33.2812 24.2563 32.9312 23.9062 32.5 23.9062C32.0688 23.9062 31.7188 24.2563 31.7188 24.6875C31.7188 25.1187 32.0688 25.4688 32.5 25.4688Z" fill="#0E5B74"/>
  <path d="M39.2188 38.4375H37.9688V16.875C37.9688 16.4435 37.619 16.0938 37.1875 16.0938H32.5C32.0685 16.0938 31.7188 16.4435 31.7188 16.875V21.5625C31.7188 21.994 32.0685 22.3438 32.5 22.3438C32.9315 22.3438 33.2812 21.994 33.2812 21.5625V17.6562H36.4062V38.4375H33.2812V27.8125C33.2812 27.381 32.9315 27.0312 32.5 27.0312C32.0685 27.0312 31.7188 27.381 31.7188 27.8125V38.4375H28.5938V23.125C28.5938 22.6935 28.244 22.3438 27.8125 22.3438H23.125C22.6935 22.3438 22.3438 22.6935 22.3438 23.125V38.4375H19.2188V27.8125C19.2188 27.381 18.869 27.0312 18.4375 27.0312H13.75C13.3185 27.0312 12.9688 27.381 12.9688 27.8125V38.4375H9.84375V30.9375C9.84375 30.506 9.49402 30.1562 9.0625 30.1562H4.375C3.94348 30.1562 3.59375 30.506 3.59375 30.9375V38.4375H1.5625V0.78125C1.5625 0.349731 1.21277 0 0.78125 0C0.349731 0 0 0.349731 0 0.78125V39.2188C0 39.6503 0.349731 40 0.78125 40H39.2188C39.6503 40 40 39.6503 40 39.2188C40 38.7872 39.6503 38.4375 39.2188 38.4375ZM8.28125 38.4375H5.15625V31.7188H8.28125V38.4375ZM17.6562 38.4375H14.5312V28.5938H17.6562V38.4375ZM27.0312 38.4375H23.9062V23.9062H27.0312V38.4375Z" fill="#0E5B74"/>
  <path d="M7.33799 24.6713C6.91593 24.761 6.64646 25.1755 6.73588 25.5978C6.82499 26.019 7.23912 26.2897 7.66209 26.1999C17.7927 24.053 26.3334 17.941 31.7222 9.71587L33.0182 10.6235C33.4934 10.9558 34.1541 10.6723 34.2392 10.0979L35.008 4.91423C35.0513 4.62157 34.9259 4.32952 34.6833 4.15984C34.441 3.99016 34.1236 3.97185 33.8633 4.11284L29.2548 6.60796C28.7449 6.88384 28.703 7.60222 29.1785 7.93517L30.4413 8.81926C25.1453 16.9131 16.7658 22.6736 7.33799 24.6713ZM33.2331 6.23076L32.8791 8.61846L31.1106 7.38005L33.2331 6.23076Z" fill="#0E5B74"/>
</svg>

<svg width="40" height="40" fill="none" xmlns="http://www.w3.org/2000/svg"><path d="M32.5 25.469a.782.782 0 100-1.563.782.782 0 000 1.563z" fill="#0E5B74"/><path d="M39.219 38.438h-1.25V16.875a.781.781 0 00-.782-.781H32.5a.781.781 0 00-.781.781v4.688a.781.781 0 101.562 0v-3.907h3.125v20.782h-3.125V27.812a.781.781 0 10-1.562 0v10.625h-3.125V23.126a.781.781 0 00-.782-.781h-4.687a.781.781 0 00-.781.781v15.313h-3.125V27.812a.781.781 0 00-.782-.78H13.75a.781.781 0 00-.781.78v10.625H9.844v-7.5a.781.781 0 00-.781-.78H4.375a.781.781 0 00-.781.78v7.5H1.563V.782A.781.781 0 100 .781V39.22c0 .431.35.781.781.781H39.22a.781.781 0 100-1.563zm-30.938 0H5.156v-6.72h3.125v6.72zm9.375 0h-3.125v-9.844h3.125v9.843zm9.375 0h-3.125V23.905h3.125v14.532z" fill="#0E5B74"/><path d="M7.338 24.671a.781.781 0 00.324 1.529c10.13-2.147 18.671-8.259 24.06-16.484l1.296.908a.782.782 0 001.221-.526l.769-5.184a.78.78 0 00-1.145-.801l-4.608 2.495a.782.782 0 00-.076 1.327l1.262.884c-5.296 8.094-13.675 13.855-23.103 15.852zm25.895-18.44l-.354 2.387-1.768-1.238 2.122-1.15z" fill="#0E5B74"/></svg>
